X:1
T:Knob Lick, 99.99.99.10.9
T:Knob Lick, 99.99.99.10.9
T:Daniel Brink Towner, 1919
T:Public Domain Courtesy of the Cyber Hymnal™
C:Daniel Brink Towner, 1919
Z:Public Domain
Z:Courtesy of the Cyber Hymnal™
%%score ( 1 2 ) ( 3 4 )
L:1/8
Q:1/4=90
M:6/8
K:Db
V:1 treble 
V:2 treble 
V:3 bass 
V:4 bass 
V:1
 [FA]>[GB][FA] [DF][DE]D | [FA]2 [GB] [FA]3 | [FA]>[GB][FA] [DF][DE]D | [DF]2 [DF] [CE]3 | %4
 [FA]>[GB][FA] [DF][DE]D | [DB]2 [Gc] [Gd]3 | [Gd]>[Gc][GB] [FA][DF]D | [CF]2 [CE] D3 | %8
 [Fd]>[Fc][Fd] [Ge][Gd][GB] | [FA]2 [DF] [FA]3 | [Fd]>[Fc][Fd] [Ge][Gd][GB] | [FA]2 [DF] [CE]3 | %12
 [DF]>[DE][DF] [CG]>[CF][CG] | [DA]>[D=G][DA] [_GB]3 | [Gd]>[Gc][GB] [FA][DF]D | [CF]2 [CE] D3 |] %16
V:2
 x5 D | x6 | x5 D | x6 | x5 D | x6 | x5 D | x3 D3 | x6 | x6 | x6 | x6 | x6 | x6 | x5 D | x3 D3 |] %16
V:3
 [D,D]>[D,D][D,D] [D,A,][D,G,][D,F,] | [D,D]2 [D,D] [D,D]3 | [D,D]>[D,D][D,D] [D,A,][D,G,][D,F,] | %3
 [A,,A,]2 [A,,A,] [A,,A,]3 | [D,A,]>[D,D][D,D] [D,A,][D,G,][D,F,] | G,2 [G,A,] [G,B,]3 | %6
 [G,B,]>[G,C][G,D] [D,D][D,A,][F,A,] | A,2 [C,G,] [D,F,]3 | [D,A,]>[D,A,][D,A,] [G,B,][G,B,][G,D] | %9
 [D,D]2 [D,A,] [D,D]3 | [D,A,]>[D,A,][D,A,] [G,B,][G,B,][G,D] | [D,D]2 [D,A,] [A,,A,]3 | %12
 [D,A,]>[D,A,][D,A,] [E,A,]>[E,A,][E,A,] | [F,D]>[F,D][F,D] [G,D]3 | %14
 [G,B,]>[G,C][G,D] [D,D][D,A,][F,A,] | A,2 [A,,G,] [D,F,]3 |] %16
V:4
 x6 | x6 | x6 | x6 | x6 | G,2 x4 | x6 | A,2 x4 | x6 | x6 | x6 | x6 | x6 | x6 | x6 | A,2 x4 |] %16

